src/assets/01_01.icon0201.svg

<?xml version="1.0" encoding="UTF-8"?>
<svg width="88px" height="88px" viewBox="0 0 88 88" version="1.1" xmlns="http://www.w3.org/2000/svg" xmlns:xlink="http://www.w3.org/1999/xlink">
    <!-- Generator: Sketch 48.2 (47327) - http://www.bohemiancoding.com/sketch -->
    <title>01_01.icon0201</title>
    <desc>Created with Sketch.</desc>
    <defs></defs>
    <g id="01_01.首页(原状态)" stroke="none" stroke-width="1" fill="none" fill-rule="evenodd" transform="translate(-742.000000, -1668.000000)">
        <g id="Group-49" transform="translate(0.000000, 1602.000000)">
            <g id="Group-48" transform="translate(360.000000, 66.000000)">
                <g id="Group-46" transform="translate(359.000000, 0.000000)">
                    <g id="01_01.icon0201" transform="translate(23.000000, 0.000000)">
                        <rect id="Rectangle-9" fill="#FFFFFF" x="0" y="0" width="88" height="88"></rect>
                        <g id="Group-38" transform="translate(17.000000, 23.000000)">
                            <path d="M4.52458976,0 L49.4754102,0 C51.0487087,0 51.6192247,0.162339336 52.1943991,0.467178672 C52.7695735,0.772018008 53.2209737,1.21935734 53.5285803,1.78935734 C53.836187,2.35935734 54,2.92474089 54,4.48388559 L54,40.5161144 C54,42.0752591 53.836187,42.6406427 53.5285803,43.2106427 C53.2209737,43.7806427 52.7695735,44.227982 52.1943991,44.5328213 C51.6192247,44.8376607 51.0487087,45 49.4754102,45 L4.52458976,45 C2.95129133,45 2.3807753,44.8376607 1.80560091,44.5328213 C1.23042652,44.227982 0.779026293,43.7806427 0.471419663,43.2106427 C0.163813033,42.6406427 0,42.0752591 0,40.5161144 L0,4.48388559 C0,2.92474089 0.163813033,2.35935734 0.471419663,1.78935734 C0.779026293,1.21935734 1.23042652,0.772018008 1.80560091,0.467178672 C2.3807753,0.162339336 2.95129133,0 4.52458976,0 Z" id="Rectangle-20" stroke="#BBC8D7" stroke-width="2.2" fill="#FFFFFF"></path>
                            <path d="M9.75,8.1 L45.15,8.1 C46.0612698,8.1 46.8,8.78190477 46.8,9.62307692 L46.8,36.2769231 C46.8,37.1180952 46.0612698,37.8 45.15,37.8 L9.75,37.8 C8.83873016,37.8 8.1,37.1180952 8.1,36.2769231 L8.1,9.62307692 C8.1,8.78190477 8.83873016,8.1 9.75,8.1 Z" id="Rectangle-21" stroke="#CED6E1" stroke-width="2.2" fill-opacity="0.0599999987" fill="#3DADD9"></path>
                            <path d="M9,22.2231445 L46.0721429,22.2231445" id="Path-14" stroke="#E2E6EC" stroke-width="2.2" stroke-linecap="round"></path>
                            <circle id="Oval-4" stroke="#8FC8DE" stroke-width="2.2" fill="#FFFFFF" cx="21.15" cy="22.95" r="5.85"></circle>
                            <path d="M45.7363636,11.7 L46.9636364,11.7 C47.867375,11.7 48.6,12.9088312 48.6,14.4 L48.6,17.1 C48.6,18.5911688 47.867375,19.8 46.9636364,19.8 L45.7363636,19.8 C44.832625,19.8 44.1,18.5911688 44.1,17.1 L44.1,14.4 C44.1,12.9088312 44.832625,11.7 45.7363636,11.7 Z" id="Rectangle-22" fill="#C7D1DD"></path>
                            <path d="M45.7363636,26.1 L46.9636364,26.1 C47.867375,26.1 48.6,27.3088312 48.6,28.8 L48.6,31.5 C48.6,32.9911688 47.867375,34.2 46.9636364,34.2 L45.7363636,34.2 C44.832625,34.2 44.1,32.9911688 44.1,31.5 L44.1,28.8 C44.1,27.3088312 44.832625,26.1 45.7363636,26.1 Z" id="Rectangle-22-Copy" fill="#C7D1DD"></path>
                            <g id="Group-43" transform="translate(18.000000, 20.700000)" stroke="#8FC8DE" stroke-linecap="round" stroke-width="2.2">
                                <path d="M0.289335942,2.02617007 L1.86205081,4.2145313" id="Path-15"></path>
                                <path d="M1.85695315,4.23180731 L5.48771493,0.336373906" id="Path-16"></path>
                            </g>
                        </g>
                    </g>
                </g>
            </g>
        </g>
    </g>
</svg>

<?xml version="1.0" encoding="utf-8"?>
<!-- Generator: Adobe Illustrator 22.1.0, SVG Export Plug-In . SVG Version: 6.00 Build 0)  -->
<svg version="1.1" id="图层_1" xmlns="http://www.w3.org/2000/svg" xmlns:xlink="http://www.w3.org/1999/xlink" x="0px" y="0px"
	 viewBox="0 0 88 88" style="enable-background:new 0 0 88 88;" xml:space="preserve">
<style type="text/css">
	.st0{fill:#FFFFFF;stroke:#BBC8D7;stroke-width:2.2;}
	.st1{fill:#3DADD9;fill-opacity:6.000000e-02;stroke:#CED6E1;stroke-width:2.2;}
	.st2{fill:none;stroke:#E2E6EC;stroke-width:2.2;stroke-linecap:round;}
	.st3{fill:#FFFFFF;stroke:#8FC8DE;stroke-width:2.2;}
	.st4{fill:#C7D1DD;}
	.st5{fill:none;stroke:#8FC8DE;stroke-width:2.2;stroke-linecap:round;}
</style>
<title>01_01.icon0201</title>
<desc>Created with Sketch.</desc>
<g id="Group-38" transform="translate(17.000000, 23.000000)">
	<path id="Rectangle-20" class="st0" d="M4.5,0h45c1.6,0,2.1,0.2,2.7,0.5c0.6,0.3,1,0.8,1.3,1.3S54,2.9,54,4.5v36
		c0,1.6-0.2,2.1-0.5,2.7s-0.8,1-1.3,1.3C51.6,44.8,51,45,49.5,45h-45c-1.6,0-2.1-0.2-2.7-0.5s-1-0.8-1.3-1.3S0,42.1,0,40.5v-36
		c0-1.6,0.2-2.1,0.5-2.7s0.8-1,1.3-1.3S3,0,4.5,0z"/>
	<path id="Rectangle-21" class="st1" d="M9.8,8.1h35.4c0.9,0,1.6,0.7,1.6,1.5v26.7c0,0.8-0.7,1.5-1.6,1.5H9.8
		c-0.9,0-1.6-0.7-1.6-1.5V9.6C8.1,8.8,8.8,8.1,9.8,8.1z"/>
	<path id="Path-14" class="st2" d="M9,22.2h37.1"/>
	<circle id="Oval-4" class="st3" cx="21.1" cy="23" r="5.9"/>
	<path id="Rectangle-22" class="st4" d="M45.7,11.7H47c0.9,0,1.6,1.2,1.6,2.7v2.7c0,1.5-0.7,2.7-1.6,2.7h-1.2
		c-0.9,0-1.6-1.2-1.6-2.7v-2.7C44.1,12.9,44.8,11.7,45.7,11.7z"/>
	<path id="Rectangle-22-Copy" class="st4" d="M45.7,26.1H47c0.9,0,1.6,1.2,1.6,2.7v2.7c0,1.5-0.7,2.7-1.6,2.7h-1.2
		c-0.9,0-1.6-1.2-1.6-2.7v-2.7C44.1,27.3,44.8,26.1,45.7,26.1z"/>
	<g id="Group-43" transform="translate(18.000000, 20.700000)">
		<path id="Path-15" class="st5" d="M0.3,2l1.6,2.2"/>
		<path id="Path-16" class="st5" d="M1.9,4.2l3.6-3.9"/>
	</g>
</g>
</svg>
